rospo-icon-theme-classic-common/32x32/apps/dirt-rally.svg

<svg height="32" width="32" xmlns="http://www.w3.org/2000/svg"><rect height="28" opacity=".2" rx="1.4" transform="matrix(0 -1 -1 0 0 0)" width="28" x="-31" y="-30"/><rect fill="#4f4f4f" height="28" rx="1.4" transform="matrix(0 -1 -1 0 0 0)" width="28" x="-30" y="-30"/><path d="m9.6992188 6c-.3878 0-.6992188.3114187-.6992188.6992188v6.3007812 6.300781c0 .3878.3114188.699219.6992188.699219h6.3007812a6.9999999 6.9999999 0 0 0 7-7 6.9999999 6.9999999 0 0 0 -7-7zm3.6015622 4h2.699219a2.9999999 2.9999999 0 0 1 3 3 2.9999999 2.9999999 0 0 1 -3 3h-2.699219c-.1662 0-.300781-.134581-.300781-.300781v-2.699219-2.699219c0-.1662.134581-.300781.300781-.300781z" opacity=".2"/><path d="m9.6992188 5c-.3878 0-.6992188.3114187-.6992188.6992188v6.3007812 6.300781c0 .3878.3114188.699219.6992188.699219h6.3007812a6.9999999 6.9999999 0 0 0 7-7 6.9999999 6.9999999 0 0 0 -7-7zm3.6015622 4h2.699219a2.9999999 2.9999999 0 0 1 3 3 2.9999999 2.9999999 0 0 1 -3 3h-2.699219c-.1662 0-.300781-.134581-.300781-.300781v-2.699219-2.6992188c0-.1661999.134581-.3007812.300781-.3007812z" fill="#fff"/><g fill="none" opacity=".2" stroke="#000" stroke-linecap="round" stroke-width=".999937" transform="translate(1 .000001)"><path d="m6.5069175 27.492861-.9999375-1.499906m-.9999379-.499969s1.9998754.232235 1.9998754-.999936c0-1.232173-1.9998754-.999938-1.9998754-.999938m.0000492 3.999798v-3.999749"/><path d="m9.5070893 25.993005h1.9998737m-1.9998237 1.499905v-2.999811m1.9998237 2.999811v-2.999811m-1.9998737 0s0-.999938.9999367-.999938c.999937 0 .999937.999938.999937.999938" stroke-linejoin="bevel"/><path d="m14.500018 23.500232v3.999749h1.999874" stroke-linejoin="round"/><path d="m19.500018 23.500232v3.999749h1.999874" stroke-linejoin="round"/><path d="m24.504166 27.49291v-1.999875m1.499906-1.999874-1.499906 1.999874m-1.499905-1.999874 1.499905 1.999874"/></g><g fill="none" stroke="#f07400" stroke-linecap="round" stroke-width=".999937" transform="translate(1 -1)"><path d="m6.5069175 27.492861-.9999375-1.499906m-.9999379-.499969s1.9998754.232235 1.9998754-.999936c0-1.232173-1.9998754-.999938-1.9998754-.999938m.0000492 3.999798v-3.999749"/><path d="m9.5070893 25.993005h1.9998737m-1.9998237 1.499905v-2.999811m1.9998237 2.999811v-2.999811m-1.9998737 0s0-.999938.9999367-.999938c.999937 0 .999937.999938.999937.999938" stroke-linejoin="bevel"/><path d="m14.500018 23.500232v3.999749h1.999874" stroke-linejoin="round"/><path d="m19.500018 23.500232v3.999749h1.999874" stroke-linejoin="round"/><path d="m24.504166 27.49291v-1.999875m1.499906-1.999874-1.499906 1.999874m-1.499905-1.999874 1.499905 1.999874"/></g><path d="m3.4003906 2c-.7756 0-1.4003906.6247906-1.4003906 1.4003906v1c0-.7756.6247906-1.4003906 1.4003906-1.4003906h25.1992184c.7756 0 1.400391.6247906 1.400391 1.4003906v-1c0-.7756-.624791-1.4003906-1.400391-1.4003906z" fill="#fff" opacity=".1"/></svg>

<svg xmlns="http://www.w3.org/2000/svg" width="32" height="32" version="1">
 <rect style="opacity:0.2" width="28" height="28" x="-31" y="-30" rx="1.4" ry="1.4" transform="matrix(0,-1,-1,0,0,0)"/>
 <rect style="fill:#4f4f4f" width="28" height="28" x="-30" y="-30" rx="1.4" ry="1.4" transform="matrix(0,-1,-1,0,0,0)"/>
 <path style="opacity:0.2" d="M 9.6992188,6 C 9.3114188,6 9,6.3114187 9,6.6992188 L 9,13 9,19.300781 C 9,19.688581 9.3114188,20 9.6992188,20 L 16,20 A 6.9999999,6.9999999 0 0 0 23,13 6.9999999,6.9999999 0 0 0 16,6 L 9.6992188,6 Z M 13.300781,10 16,10 a 2.9999999,2.9999999 0 0 1 3,3 2.9999999,2.9999999 0 0 1 -3,3 l -2.699219,0 C 13.134581,16 13,15.865419 13,15.699219 L 13,13 13,10.300781 C 13,10.134581 13.134581,10 13.300781,10 Z"/>
 <path style="fill:#ffffff" d="M 9.6992188 5 C 9.3114188 5 9 5.3114187 9 5.6992188 L 9 12 L 9 18.300781 C 9 18.688581 9.3114188 19 9.6992188 19 L 16 19 A 6.9999999 6.9999999 0 0 0 23 12 A 6.9999999 6.9999999 0 0 0 16 5 L 9.6992188 5 z M 13.300781 9 L 16 9 A 2.9999999 2.9999999 0 0 1 19 12 A 2.9999999 2.9999999 0 0 1 16 15 L 13.300781 15 C 13.134581 15 13 14.865419 13 14.699219 L 13 12 L 13 9.3007812 C 13 9.1345813 13.134581 9 13.300781 9 z"/>
 <g style="opacity:0.2;stroke:#000000" transform="translate(1,5.0420487e-7)">
  <path style="fill:none;stroke:#000000;stroke-width:0.999937;stroke-linecap:round" d="M 6.5069175,27.492861 5.50698,25.992955 M 4.5070421,25.492986 c 0,0 1.9998754,0.232235 1.9998754,-0.999936 0,-1.232173 -1.9998754,-0.999938 -1.9998754,-0.999938 m 4.92e-5,3.999798 0,-3.999749"/>
  <path style="fill:none;stroke:#000000;stroke-width:0.999937;stroke-linecap:round;stroke-linejoin:bevel" d="m 9.5070893,25.993005 1.9998737,0 m -1.9998237,1.499905 0,-2.999811 m 1.9998237,2.999811 0,-2.999811 m -1.9998737,0 c 0,0 0,-0.999938 0.9999367,-0.999938 0.999937,0 0.999937,0.999938 0.999937,0.999938"/>
  <path style="fill:none;stroke:#000000;stroke-width:0.999937;stroke-linecap:round;stroke-linejoin:round" d="m 14.500018,23.500232 0,3.999749 1.999874,0 0,0"/>
  <path style="fill:none;stroke:#000000;stroke-width:0.999937;stroke-linecap:round;stroke-linejoin:round" d="m 19.500018,23.500232 0,3.999749 1.999874,0 0,0"/>
  <path style="fill:none;stroke:#000000;stroke-width:0.999937;stroke-linecap:round" d="m 24.504166,27.49291 0,-1.999875 m 1.499906,-1.999874 -1.499906,1.999874 m -1.499905,-1.999874 1.499905,1.999874"/>
 </g>
 <g transform="translate(1,-1)">
  <path style="fill:none;stroke:#f07400;stroke-width:0.999937;stroke-linecap:round" d="M 6.5069175,27.492861 5.50698,25.992955 M 4.5070421,25.492986 c 0,0 1.9998754,0.232235 1.9998754,-0.999936 0,-1.232173 -1.9998754,-0.999938 -1.9998754,-0.999938 m 4.92e-5,3.999798 0,-3.999749"/>
  <path style="fill:none;stroke:#f07400;stroke-width:0.999937;stroke-linecap:round;stroke-linejoin:bevel" d="m 9.5070893,25.993005 1.9998737,0 m -1.9998237,1.499905 0,-2.999811 m 1.9998237,2.999811 0,-2.999811 m -1.9998737,0 c 0,0 0,-0.999938 0.9999367,-0.999938 0.999937,0 0.999937,0.999938 0.999937,0.999938"/>
  <path style="fill:none;stroke:#f07400;stroke-width:0.999937;stroke-linecap:round;stroke-linejoin:round" d="m 14.500018,23.500232 0,3.999749 1.999874,0 0,0"/>
  <path style="fill:none;stroke:#f07400;stroke-width:0.999937;stroke-linecap:round;stroke-linejoin:round" d="m 19.500018,23.500232 0,3.999749 1.999874,0 0,0"/>
  <path style="fill:none;stroke:#f07400;stroke-width:0.999937;stroke-linecap:round" d="m 24.504166,27.49291 0,-1.999875 m 1.499906,-1.999874 -1.499906,1.999874 m -1.499905,-1.999874 1.499905,1.999874"/>
 </g>
 <path style="fill:#ffffff;opacity:0.1" d="M 3.4003906 2 C 2.6247906 2 2 2.6247906 2 3.4003906 L 2 4.4003906 C 2 3.6247906 2.6247906 3 3.4003906 3 L 28.599609 3 C 29.375209 3 30 3.6247906 30 4.4003906 L 30 3.4003906 C 30 2.6247906 29.375209 2 28.599609 2 L 3.4003906 2 z"/>
</svg>
